packages/icons/svg/Fill/info.svg

<svg fill="none" height="24" viewBox="0 0 24 24" width="24" xmlns="http://www.w3.org/2000/svg"><path clip-rule="evenodd" d="m12 9.00007c-.552 0-1-.448-1-1s.448-1.00001 1-1.00001 1 .44801 1 1.00001-.448 1-1 1zm1 7.00003c0 .552-.448 1-1 1s-1-.448-1-1v-5c0-.552.448-1 1-1s1 .448 1 1zm-1-14.0001c-5.52298 0-9.99998 4.477-9.99998 10s4.477 10 9.99998 10c5.522 0 10-4.477 10-10s-4.478-10-10-10z" fill="#6b7280" fill-rule="evenodd"/></svg>

<svg width="24" height="24" viewBox="0 0 24 24" fill="none" xmlns="http://www.w3.org/2000/svg">
<g id="Icon/Fill/info">
<path id="Mask" fill-rule="evenodd" clip-rule="evenodd" d="M12 9C11.448 9 11 8.552 11 8C11 7.448 11.448 7 12 7C12.552 7 13 7.448 13 8C13 8.552 12.552 9 12 9ZM13 16C13 16.552 12.552 17 12 17C11.448 17 11 16.552 11 16V11C11 10.448 11.448 10 12 10C12.552 10 13 10.448 13 11V16ZM12 2C6.477 2 2 6.477 2 12C2 17.523 6.477 22 12 22C17.522 22 22 17.523 22 12C22 6.477 17.522 2 12 2Z" fill="#000000"/>
</g>
</svg>
